X:34
T:Humours of Ballyconnell
Z: id:dc-hornpipe-31
M:C|
L:1/8
K:A Mixolydian
ed|cBcd cBAG|AGEF GABd|cdcB AGEG|ABcd e2ed|!
cBcd cBAG|AEAB cdcB|ABAG EDEG|A4 A2:|!
AG|ABcd e2dc|dcde fged|efga bagb|a4 a2af|!
gedB =cBAG|AEAB cdcB|ABAG EDEG|A4 A2:|!

